X: 149
T: Dun ji lu wan The bend of Tanjid
L: 1/8
M: 2/4
K: C
E2A2- [I:setbarnb 1]| 
A2c d | 
A3G | 
E2A,2 | 
A G G E | 
D2E G | 
A4- | 
A4 | 
EC2A, | 
A3G | 
A> GE2 | 
D CA,2 | 
E3A | 
E DC2 | 
A,4- | 
A,4 |]

@@@ Tune index: 8817
